Origami/64x64/apps/wechat.svg

<svg width="64" height="64" version="1.1" viewBox="0 0 64 64" xmlns="http://www.w3.org/2000/svg">
 <path d="m4.043 27.828a28 26 0 0 0 -0.043 1.172 28 26 0 0 0 10 19.914v-2a28 26 0 0 1 -9.957 -19.086zm55.916 0.344a28 26 0 0 1 -27.958 24.828 28 26 0 0 1 -10.558 -1.934l-7.442 5.934v2l7.442-5.934a28 26 0 0 0 10.558 1.934 28 26 0 0 0 28 -26 28 26 0 0 0 -0.042 -0.828z" style="opacity:.2"/>
 <path d="M 32,2 A 28,26 0 0 0 4,28 28,26 0 0 0 14,47.914 L 14,58 21.442,52.066 A 28,26 0 0 0 32,54 28,26 0 0 0 60,28 28,26 0 0 0 32,2 Z" style="fill:#50bcff"/>
 <path d="m44.006 22.99986a20 19 0 0 1 1.706 0.082c0.4122 0.0326 0.8158 0.0852 1.2196 0.1406a20 19 0 0 1 0.6406 0.0918c0.5754 0.097 1.1404 0.2196 1.6974 0.3614a20 19 0 0 1 0.1094 0.0274c8.4424 2.1984 14.621 9.4222 14.621 17.9968-1.02e-4 0.06216-5e-3 0.12346-0.0058 0.18554a20 19 0 0 1 0.0058 0.114 20 19 0 0 1 -7.8028 15.028v5.9726l-5.502-3.121a20 19 0 0 1 -6.6952 1.12 20 19 0 0 1 -19.95 -18.03c-0.016-0.22114-0.02754-0.44286-0.03516-0.66602a20 19 0 0 1 -0.014 -0.304 20 19 0 0 1 4e-3 -0.124c0-0.058-4e-3 -0.118-4e-3 -0.176 0-9.685 7.876-17.6668 18.004-18.6042a20 19 0 0 1 1.664 -0.0802c0.112-0.0018 0.222-0.0156 0.334-0.0156h4e-3z" style="opacity:.2"/>
 <path d="M 31.998047 2 A 28 26 0 0 0 4 28 A 28 26 0 0 0 4.0214844 28.423828 A 28 26 0 0 1 31.998047 3 L 32 3 A 28 26 0 0 1 59.976562 28.603516 A 28 26 0 0 0 59.998047 28 A 28 26 0 0 0 32 2 L 31.998047 2 z" style="fill:#ffffff;opacity:.2"/>
 <circle cx="18" cy="23" r="4" style="opacity:.1"/>
 <circle cx="18" cy="22" r="4" style="fill:#3f3f3f"/>
 <circle cx="46" cy="24" r="4" style="opacity:.1"/>
 <circle cx="46" cy="22" r="4" style="fill:#3f3f3f"/>
 <path d="m44.006 21.99986a20 19 0 0 1 1.706 0.082c0.4122 0.0326 0.8158 0.0852 1.2196 0.1406a20 19 0 0 1 0.6406 0.0918c0.5754 0.097 1.1404 0.2196 1.6974 0.3614a20 19 0 0 1 0.1094 0.0274c8.4424 2.1984 14.621 9.4222 14.621 17.9968-1.02e-4 0.06216-5e-3 0.12346-0.0058 0.18554a20 19 0 0 1 0.0058 0.114 20 19 0 0 1 -7.8028 15.028v5.9726l-5.502-3.121a20 19 0 0 1 -6.6952 1.12 20 19 0 0 1 -19.95 -18.03c-0.016-0.22114-0.02754-0.44286-0.03516-0.66602a20 19 0 0 1 -0.014 -0.304 20 19 0 0 1 4e-3 -0.124c0-0.058-4e-3 -0.118-4e-3 -0.176 0-9.685 7.876-17.6668 18.004-18.6042a20 19 0 0 1 1.664 -0.0802c0.112-0.0018 0.222-0.0156 0.334-0.0156h4e-3z" style="fill:#cccccc"/>
 <path d="m44.003906 22c-0.112 0-0.223937 0.013825-0.335937 0.015625a20 19 0 0 0 -1.664063 0.078125c-10.128 0.93743-18.003906 8.920469-18.003906 18.605469 0 0.058 0.003906 0.117781 0.003906 0.175781a20 19 0 0 0 -0.003906 0.125 20 19 0 0 0 0.015625 0.304688c5.11e-4 0.015088 0.001386 0.029872 0.001953 0.044921 0.18859-9.525391 7.981617-17.32984 17.986328-18.255859a20 19 0 0 1 1.664063 -0.078125c0.112-0.0018 0.223937-0.015625 0.335937-0.015625h0.003906a20 19 0 0 1 1.703126 0.082031c0.412199 0.0326 0.81495 0.085225 1.21875 0.140625a20 19 0 0 1 0.640624 0.089844c0.575401 0.097 1.142219 0.221481 1.699219 0.363281a20 19 0 0 1 0.109375 0.027344c8.314856 2.165188 14.420526 9.207314 14.603516 17.611328a20 19 0 0 0 0.017578 -0.314453 20 19 0 0 0 -0.003906 -0.113281c8e-4 -0.06208 0.003706-0.12534 0.003906-0.1875 0-8.5746-6.178694-15.797694-14.621094-17.996094a20 19 0 0 0 -0.109375 -0.027344c-0.557-0.1418-1.123818-0.266281-1.699219-0.363281a20 19 0 0 0 -0.640624 -0.089844c-0.4038-0.0554-0.806551-0.108025-1.21875-0.140625a20 19 0 0 0 -1.703126 -0.082031h-0.003906z" style="fill:#ffffff;opacity:.2"/>
 <circle cx="34" cy="39" r="4" style="opacity:.1"/>
 <circle cx="34" cy="38" r="4" style="fill:#3f3f3f"/>
 <circle cx="54" cy="39" r="4" style="opacity:.1"/>
 <circle cx="54" cy="38" r="4" style="fill:#3f3f3f"/>
</svg>

<svg xmlns="http://www.w3.org/2000/svg" width="64" height="64" version="1.1" viewBox="0 0 64 64">
 <path style="opacity:0.2" d="M 4.043,27.828 A 28,26 0 0 0 4,29 28,26 0 0 0 14,48.914 l 0,-2 A 28,26 0 0 1 4.043,27.828 Z m 55.916,0.344 A 28,26 0 0 1 32.001,53 28,26 0 0 1 21.443,51.066 L 14.001,57 l 0,2 7.442,-5.934 A 28,26 0 0 0 32.001,55 a 28,26 0 0 0 28,-26 28,26 0 0 0 -0.042,-0.828 z"/>
 <path style="fill:#50bcff" d="M 32,2 A 28,26 0 0 0 4,28 28,26 0 0 0 14,47.914 L 14,58 21.442,52.066 A 28,26 0 0 0 32,54 28,26 0 0 0 60,28 28,26 0 0 0 32,2 Z"/>
 <path style="opacity:0.2" d="m 44.006,22.99986 a 20,19 0 0 1 1.706,0.082 c 0.4122,0.0326 0.8158,0.0852 1.2196,0.1406 a 20,19 0 0 1 0.6406,0.0918 c 0.5754,0.097 1.1404,0.2196 1.6974,0.3614 a 20,19 0 0 1 0.1094,0.0274 c 8.4424,2.1984 14.621,9.4222 14.621,17.9968 -1.02e-4,0.06216 -0.005,0.12346 -0.0058,0.18554 A 20,19 0 0 1 64,41.9994 20,19 0 0 1 56.1972,57.0274 l 0,5.9726 -5.502,-3.121 A 20,19 0 0 1 44,60.999 20,19 0 0 1 24.05,42.969 c -0.016,-0.22114 -0.02754,-0.44286 -0.03516,-0.66602 a 20,19 0 0 1 -0.014,-0.304 20,19 0 0 1 0.004,-0.124 c 0,-0.058 -0.004,-0.118 -0.004,-0.176 0,-9.685 7.876,-17.6668 18.004,-18.6042 a 20,19 0 0 1 1.664,-0.0802 c 0.112,-0.0018 0.222,-0.0156 0.334,-0.0156 0.0013,0 0.0026,0 0.004,0 z"/>
 <path style="opacity:0.2;fill:#ffffff" d="M 31.998047 2 A 28 26 0 0 0 4 28 A 28 26 0 0 0 4.0214844 28.423828 A 28 26 0 0 1 31.998047 3 L 32 3 A 28 26 0 0 1 59.976562 28.603516 A 28 26 0 0 0 59.998047 28 A 28 26 0 0 0 32 2 L 31.998047 2 z"/>
 <circle style="opacity:0.1" cx="18" cy="23" r="4"/>
 <circle style="fill:#3f3f3f" cx="18" cy="22" r="4"/>
 <circle style="opacity:0.1" cx="46" cy="24" r="4"/>
 <circle style="fill:#3f3f3f" cx="46" cy="22" r="4"/>
 <path style="fill:#cccccc" d="m 44.006,21.99986 a 20,19 0 0 1 1.706,0.082 c 0.4122,0.0326 0.8158,0.0852 1.2196,0.1406 a 20,19 0 0 1 0.6406,0.0918 c 0.5754,0.097 1.1404,0.2196 1.6974,0.3614 a 20,19 0 0 1 0.1094,0.0274 c 8.4424,2.1984 14.621,9.4222 14.621,17.9968 -1.02e-4,0.06216 -0.005,0.12346 -0.0058,0.18554 A 20,19 0 0 1 64,40.9994 20,19 0 0 1 56.1972,56.0274 l 0,5.9726 -5.502,-3.121 A 20,19 0 0 1 44,59.999 20,19 0 0 1 24.05,41.969 c -0.016,-0.22114 -0.02754,-0.44286 -0.03516,-0.66602 a 20,19 0 0 1 -0.014,-0.304 20,19 0 0 1 0.004,-0.124 c 0,-0.058 -0.004,-0.118 -0.004,-0.176 0,-9.685 7.876,-17.6668 18.004,-18.6042 a 20,19 0 0 1 1.664,-0.0802 c 0.112,-0.0018 0.222,-0.0156 0.334,-0.0156 0.0013,0 0.0026,0 0.004,0 z"/>
 <path style="opacity:0.2;fill:#ffffff" d="M 44.003906 22 C 43.891906 22 43.779969 22.013825 43.667969 22.015625 A 20 19 0 0 0 42.003906 22.09375 C 31.875906 23.03118 24 31.014219 24 40.699219 C 24 40.757219 24.003906 40.817 24.003906 40.875 A 20 19 0 0 0 24 41 A 20 19 0 0 0 24.015625 41.304688 C 24.016136 41.319776 24.017011 41.33456 24.017578 41.349609 C 24.206168 31.824218 31.999195 24.019769 42.003906 23.09375 A 20 19 0 0 1 43.667969 23.015625 C 43.779969 23.013825 43.891906 23 44.003906 23 L 44.007812 23 A 20 19 0 0 1 45.710938 23.082031 C 46.123137 23.114631 46.525888 23.167256 46.929688 23.222656 A 20 19 0 0 1 47.570312 23.3125 C 48.145713 23.4095 48.712531 23.533981 49.269531 23.675781 A 20 19 0 0 1 49.378906 23.703125 C 57.693762 25.868313 63.799432 32.910439 63.982422 41.314453 A 20 19 0 0 0 64 41 A 20 19 0 0 0 63.996094 40.886719 C 63.996894 40.824639 63.9998 40.761379 64 40.699219 C 64 32.124619 57.821306 24.901525 49.378906 22.703125 A 20 19 0 0 0 49.269531 22.675781 C 48.712531 22.533981 48.145713 22.4095 47.570312 22.3125 A 20 19 0 0 0 46.929688 22.222656 C 46.525888 22.167256 46.123137 22.114631 45.710938 22.082031 A 20 19 0 0 0 44.007812 22 L 44.003906 22 z"/>
 <circle style="opacity:0.1" cx="34" cy="39" r="4"/>
 <circle style="fill:#3f3f3f" cx="34" cy="38" r="4"/>
 <circle style="opacity:0.1" cx="54" cy="39" r="4"/>
 <circle style="fill:#3f3f3f" cx="54" cy="38" r="4"/>
</svg>
